X:7233
T:The Princes Royal
T:The Princess Royal
O:england
B:Gow's 2nd Repository, early 1800s
N:transposed from Gm
M:4/4
L:1/8
K:Dm
D/E/|F2EF D2AG|FGEF D3A|B3A G2cB|ABGA F4|
F2dF E2cE|DEFD A,2 AG|FEFD A,D^CE|D2 D2 D2:|]
A|d^cde d^cde|f2 F2 F2 de|fedc BAGF|EFGE C4|
F2EF G2FG|A2 A2 d4|c2 F2 B4|A2 D2 G4|
FGFE DEFD|^CDEC A,2 AG|FEFD A,D^CE|D2 D2 D2:|]


